X: 633
M: 9/8
L: 1/8
K: Dmix
d>ed F2G A2A | c>dc E2F G2B/c/ | d2A B2B B/c/dB | AGF E2D D2 :|
|: A |\
d>ef f>ef d2A | c>de ede c2A | d>ef f>ef f>ef | d>ef f>ef d2A |
d>ef f>ef d2A | c>de e>de c2B/c/ | d2A B2A B/c/dB | AGF E2D D2 :|

